lib/assets/icons/svg/outlined-finance-promotion.svg

<svg xmlns="http://www.w3.org/2000/svg" viewBox="0 0 24 24"><path d="M8.39 4.477a.54.54 0 0 1 .14-.67l1-.88a.54.54 0 0 1 .69 0l.67.53.8-.55a.542.542 0 0 1 .62 0l.8.55.67-.53a.54.54 0 0 1 .69 0l1 .88a.54.54 0 0 1 .14.67l-1.012 2.149c3.214 1.837 4.562 6.867 4.562 9.221 0 2.91-3.21 5.35-7.16 5.35s-7.16-2.4-7.16-5.35c0-2.408 1.373-7.488 4.651-9.273zm6.14-.13l-.37-.31-.63.5a.54.54 0 0 1-.65 0l-.83-.56-.82.56a.561.561 0 0 1-.66 0l-.63-.5-.37.31.942 1.802A5.23 5.23 0 0 1 12 5.937c.566 0 1.095.086 1.588.244zm-3.95 12.11a2.001 2.001 0 0 1-.58-1.4.54.54 0 0 1 .55-.55.55.55 0 0 1 .55.55.85.85 0 0 0 .87.87.9.9 0 1 0 0-1.79c-1.54.023-2.527-1.629-1.777-2.974a1.999 1.999 0 0 1 1.257-.965v-.551a.55.55 0 0 1 1.1 0v.568a2 2 0 0 1 1.44 1.922.55.55 0 1 1-1.1 0 .92.92 0 0 0-.9-.9.94.94 0 0 0-1 .9.92.92 0 0 0 .9.94 2 2 0 0 1 .66 3.909v.501a.55.55 0 1 1-1.1 0v-.531a1.995 1.995 0 0 1-.87-.499zM12 7.037c-4.26 0-6.06 6.3-6.06 8.81 0 2.34 2.72 4.25 6.06 4.25 3.34 0 6.06-1.91 6.06-4.25 0-2.5-1.8-8.81-6.06-8.81z"/></svg>

<svg viewBox="0 0 24 24" xmlns="http://www.w3.org/2000/svg">
  <path  d="M 8.39 4.477 C 8.271 4.249 8.33 3.968 8.53 3.807 L 9.53 2.927 C 9.73 2.761 10.02 2.761 10.22 2.927 L 10.89 3.457 L 11.69 2.907 C 11.876 2.777 12.124 2.777 12.31 2.907 L 13.11 3.457 L 13.78 2.927 C 13.98 2.761 14.27 2.761 14.47 2.927 L 15.47 3.807 C 15.67 3.968 15.729 4.249 15.61 4.477 L 14.598 6.626 C 17.812 8.463 19.16 13.493 19.16 15.847 C 19.16 18.757 15.95 21.197 12 21.197 C 8.05 21.197 4.84 18.797 4.84 15.847 C 4.84 13.439 6.213 8.359 9.491 6.574 Z M 14.53 4.347 L 14.16 4.037 L 13.53 4.537 C 13.338 4.682 13.072 4.682 12.88 4.537 L 12.05 3.977 L 11.23 4.537 C 11.033 4.68 10.767 4.68 10.57 4.537 L 9.94 4.037 L 9.57 4.347 L 10.512 6.149 C 10.976 6.012 11.472 5.937 12 5.937 C 12.566 5.937 13.095 6.023 13.588 6.181 Z M 10.58 16.457 C 10.211 16.084 10.002 15.582 10 15.057 C 9.994 14.751 10.244 14.501 10.55 14.507 C 10.854 14.507 11.1 14.753 11.1 15.057 C 11.088 15.542 11.485 15.939 11.97 15.927 C 12.659 16 13.169 15.3 12.887 14.667 C 12.729 14.31 12.358 14.096 11.97 14.137 C 10.43 14.16 9.443 12.508 10.193 11.163 C 10.465 10.676 10.922 10.331 11.45 10.198 L 11.45 9.647 C 11.45 9.224 11.908 8.959 12.275 9.171 C 12.445 9.269 12.55 9.451 12.55 9.647 L 12.55 10.215 C 13.38 10.457 13.991 11.223 13.99 12.137 C 13.99 12.441 13.744 12.687 13.44 12.687 C 13.136 12.687 12.89 12.441 12.89 12.137 C 12.879 11.644 12.483 11.248 11.99 11.237 C 11.463 11.203 11.011 11.609 10.99 12.137 C 10.979 12.645 11.382 13.066 11.89 13.077 C 13.018 13.043 13.951 13.949 13.95 15.077 C 13.95 15.973 13.362 16.731 12.55 16.986 L 12.55 17.487 C 12.55 17.791 12.304 18.037 12 18.037 C 11.696 18.037 11.45 17.791 11.45 17.487 L 11.45 16.956 C 11.125 16.867 10.825 16.697 10.58 16.457 Z M 12 7.037 C 7.74 7.037 5.94 13.337 5.94 15.847 C 5.94 18.187 8.66 20.097 12 20.097 C 15.34 20.097 18.06 18.187 18.06 15.847 C 18.06 13.347 16.26 7.037 12 7.037 Z"/>
</svg>
